src/assets/selectIconsSpells/veleno_3.svg

<svg xmlns="http://www.w3.org/2000/svg" viewBox="0 0 512 512"><path d="M0 0h512v512H0z"/><path fill="#fff" d="M82.055 26.807c-33.127 0-60.182 27.057-60.182 60.183 0 33.126 27.055 60.182 60.182 60.182 33.126 0 60.18-27.056 60.18-60.182 0-33.127-27.054-60.183-60.18-60.183zm13.85 21.043c16.15 5.665 27.64 20.98 27.64 39.14 0 23.025-18.465 41.49-41.49 41.49-23.025 0-41.49-18.465-41.49-41.49 0-.55.02-1.097.04-1.642 6.067 8.444 15.966 13.95 27.157 13.95 18.46 0 33.425-14.966 33.425-33.427 0-6.638-1.943-12.82-5.28-18.02zm158.058 11.855c-58.15.002-105.123 47.627-105.123 105.71 0 48.528 32.96 89.51 77.738 101.726-8.41 17.653-13.498 37.277-13.498 58.294 0 76.485 62.51 138.998 138.996 138.998h.004c76.485 0 138.412-62.562 138.412-138.998 0-38.083-15.76-72.427-40.658-97.454 16.358-14.68 26.643-36.147 26.643-59.648 0-43.695-35.733-79.426-79.428-79.426-20.743 0-39.395 8.335-53.43 21.41-18.555-30.156-51.717-50.61-89.657-50.61zm0 18.69c34.466 0 64.11 20.527 78.127 49.697-2.174 5.54-3.38 11.563-3.38 17.873 0 27.04 21.918 48.96 48.958 48.96s48.96-21.92 48.96-48.96c0-14.81-6.586-28.073-16.978-37.05 27.496 5.802 48.137 30.194 48.137 59.417 0 21.225-10.98 40.403-27.336 51.186l-10.354 6.826 9.418 8.07c25.745 22.062 42.29 54.548 42.29 91.02 0 66.374-53.402 120.308-119.724 120.308h-.004c-57.162 0-105.154-40.103-117.322-93.642 15.684 22.5 41.747 37.226 71.254 37.226 47.94 0 86.8-38.862 86.8-86.8 0-47.94-38.86-86.8-86.8-86.8-28.382 0-53.578 13.625-69.416 34.688-39.414-8.176-69.063-43.066-69.063-85 0-.494.01-.985.017-1.476 9.545 23.694 32.734 40.425 59.846 40.425 35.627 0 64.51-28.88 64.51-64.508 0-28.533-18.534-52.723-44.214-61.232 2.07-.148 4.162-.228 6.273-.228zm-148.018 163.44c-7.16-.028-14.436.883-21.668 2.82C40.2 256.47 14.415 302.08 26.203 346.076c6.57 24.52 23.502 43.28 44.84 53.198-6.084 12.932-7.977 27.963-3.982 42.87 9.028 33.693 44.24 53.447 77.813 44.45 33.573-8.995 53.595-43.677 44.6-77.25-3.488-13.016-10.86-23.98-20.496-32.017 16.684-19.844 24.108-47.014 16.87-74.027v-.003c-9.596-35.817-41.55-59.943-76.84-61.395-1.017-.042-2.04-.064-3.062-.068zm0 18.665c.794.002 1.586.018 2.375.05 27.367 1.083 52.01 19.727 59.475 47.585 6.445 24.055-2.003 47.964-19.39 63.7l-9.663 8.743 11.383 6.346c10.19 5.68 18.04 15.104 21.295 27.256 6.393 23.86-7.526 47.97-31.383 54.36-20.92 5.606-42.49-4.383-51.775-22.935 6.85 3.057 14.754 3.877 22.564 1.784 18.086-4.847 28.82-23.438 23.973-41.525-4.847-18.085-23.437-28.816-41.523-23.97-2.766.74-5.36 1.807-7.752 3.14-19.715-6.628-35.476-22.17-41.27-43.797-.678-2.524-1.18-5.05-1.548-7.572 10.962 18.105 32.915 27.61 54.387 21.857 26.044-6.978 41.5-33.75 34.52-59.796-4.7-17.548-18.392-30.275-34.788-34.586 3.055-.432 6.1-.647 9.12-.64z"/></svg>

<?xml version="1.0" encoding="UTF-8" standalone="no"?>
<!DOCTYPE svg PUBLIC "-//W3C//DTD SVG 1.1//EN" "http://www.w3.org/Graphics/SVG/1.1/DTD/svg11.dtd">
<svg width="100%" height="100%" viewBox="0 0 512 512" version="1.1" xmlns="http://www.w3.org/2000/svg" xmlns:xlink="http://www.w3.org/1999/xlink" xml:space="preserve" xmlns:serif="http://www.serif.com/" style="fill-rule:evenodd;clip-rule:evenodd;stroke-linejoin:round;stroke-miterlimit:2;">
    <rect x="0" y="0" width="512" height="512" style="fill-rule:nonzero;"/>
    <path d="M82.055,26.807C48.928,26.807 21.873,53.864 21.873,86.99C21.873,120.116 48.928,147.172 82.055,147.172C115.181,147.172 142.235,120.116 142.235,86.99C142.235,53.863 115.181,26.807 82.055,26.807ZM95.905,47.85C112.055,53.515 123.545,68.83 123.545,86.99C123.545,110.015 105.08,128.48 82.055,128.48C59.03,128.48 40.565,110.015 40.565,86.99C40.565,86.44 40.585,85.893 40.605,85.348C46.672,93.792 56.571,99.298 67.762,99.298C86.222,99.298 101.187,84.332 101.187,65.871C101.187,59.233 99.244,53.051 95.907,47.851L95.905,47.85ZM253.963,59.705C195.813,59.707 148.84,107.332 148.84,165.415C148.84,213.943 181.8,254.925 226.578,267.141C218.168,284.794 213.08,304.418 213.08,325.435C213.08,401.92 275.59,464.433 352.076,464.433L352.08,464.433C428.565,464.433 490.492,401.871 490.492,325.435C490.492,287.352 474.732,253.008 449.834,227.981C466.192,213.301 476.477,191.834 476.477,168.333C476.477,124.638 440.744,88.907 397.049,88.907C376.306,88.907 357.654,97.242 343.619,110.317C325.064,80.161 291.902,59.707 253.962,59.707L253.963,59.705ZM253.963,78.395C288.429,78.395 318.073,98.922 332.09,128.092C329.916,133.632 328.71,139.655 328.71,145.965C328.71,173.005 350.628,194.925 377.668,194.925C404.708,194.925 426.628,173.005 426.628,145.965C426.628,131.155 420.042,117.892 409.65,108.915C437.146,114.717 457.787,139.109 457.787,168.332C457.787,189.557 446.807,208.735 430.451,219.518L420.097,226.344L429.515,234.414C455.26,256.476 471.805,288.962 471.805,325.434C471.805,391.808 418.403,445.742 352.081,445.742L352.077,445.742C294.915,445.742 246.923,405.639 234.755,352.1C250.439,374.6 276.502,389.326 306.009,389.326C353.949,389.326 392.809,350.464 392.809,302.526C392.809,254.586 353.949,215.726 306.009,215.726C277.627,215.726 252.431,229.351 236.593,250.414C197.179,242.238 167.53,207.348 167.53,165.414C167.53,164.92 167.54,164.429 167.547,163.938C177.092,187.632 200.281,204.363 227.393,204.363C263.02,204.363 291.903,175.483 291.903,139.855C291.903,111.322 273.369,87.132 247.689,78.623C249.759,78.475 251.851,78.395 253.962,78.395L253.963,78.395ZM105.945,241.835C98.785,241.807 91.509,242.718 84.277,244.655C40.2,256.47 14.415,302.08 26.203,346.076C32.773,370.596 49.705,389.356 71.043,399.274C64.959,412.206 63.066,427.237 67.061,442.144C76.089,475.837 111.301,495.591 144.874,486.594C178.447,477.599 198.469,442.917 189.474,409.344C185.986,396.328 178.614,385.364 168.978,377.327C185.662,357.483 193.086,330.313 185.848,303.3L185.848,303.297C176.252,267.48 144.298,243.354 109.008,241.902C107.991,241.86 106.968,241.838 105.946,241.834L105.945,241.835ZM105.945,260.5C106.739,260.502 107.531,260.518 108.32,260.55C135.687,261.633 160.33,280.277 167.795,308.135C174.24,332.19 165.792,356.099 148.405,371.835L138.742,380.578L150.125,386.924C160.315,392.604 168.165,402.028 171.42,414.18C177.813,438.04 163.894,462.15 140.037,468.54C119.117,474.146 97.547,464.157 88.262,445.605C95.112,448.662 103.016,449.482 110.826,447.389C128.912,442.542 139.646,423.951 134.799,405.864C129.952,387.779 111.362,377.048 93.276,381.894C90.51,382.634 87.916,383.701 85.524,385.034C65.809,378.406 50.048,362.864 44.254,341.237C43.576,338.713 43.074,336.187 42.706,333.665C53.668,351.77 75.621,361.275 97.093,355.522C123.137,348.544 138.593,321.772 131.613,295.726C126.913,278.178 113.221,265.451 96.825,261.14C99.88,260.708 102.925,260.493 105.945,260.5Z" style="fill:rgb(190,242,49);fill-rule:nonzero;"/>
</svg>
